Volume2_Chapter6_FProject/Looks/Artistic Effect Blue.3DL
#Created by: Adobe Photoshop Export Color Lookup Plugin
#Copyright: (C) Copyright 2024 Jennifer Harder
#Description: Artistic Effect Blue
0 16 32 49 65 81 97 114 130 146 162 179 195 211 227 244 260 276 292 309 325 341 357 373 390 406 422 438 455 471 487 503 520 536 552 568 585 601 617 633 650 666 682 698 714 731 747 763 779 796 812 828 844 861 877 893 909 926 942 958 974 991 1007 1023
91 151 146
91 151 146
91 151 146
91 151 146
91 151 146
91 151 146
91 151 146
91 151 146
91 151 146
91 151 146
91 151 146
91 151 146
91 151 146
91 151 146
91 151 146
91 151 146
91 151 146
91 151 146
91 151 146
91 151 146
91 151 146
91 151 146
91 151 146
91 151 146
91 152 147
95 158 153
101 168 163
109 181 175
118 196 190
128 213 206
139 232 224
151 252 244
164 274 265
178 297 287
193 321 310
208 346 335
223 372 360
240 400 386
257 428 414
274 457 441
292 486 470
310 516 499
328 547 529
347 578 559
366 609 589
384 640 619
403 672 649
422 702 679
440 733 709
458 764 738
476 794 767
494 823 796
511 851 823
527 878 849
543 905 874
558 929 898
572 953 921
586 976 944
599 998 965
612 1020 986
625 1041 1006
637 1062 1026
650 1082 1046
650 1083 1047
91 151 146
91 151 146
91 151 146
91 151 146
91 151 146
91 151 146
91 151 146
91 151 146
91 151 146
91 151 146
91 151 146
91 151 146
91 151 146
91 151 146
91 151 146
91 151 146
91 151 146
91 151 146
91 151 146
91 151 146
91 151 146
91 151 146
91 151 146
91 151 146
91 152 147
95 158 153
101 168 163
109 181 175
118 196 190
128 213 206
139 232 224
151 252 244
164 274 265
178 297 287
193 321 310
208 346 335
223 372 360
240 400 386
257 428 414
274 457 441
292 486 470
310 516 499
328 547 529
347 578 559
366 609 589
384 640 619
403 672 649
422 702 679
440 733 709
458 764 738
476 794 767
494 823 796
511 851 823
527 878 849
543 905 874
558 929 898
572 953 921
586 976 944
599 998 965
612 1020 986
625 1041 1006
637 1062 1026
650 1082 1046
650 1083 1047
91 151 146
91 151 146
91 151 146
91 151 146
91 151 146
91 151 146
91 151 146
91 151 146
91 151 146
91 151 146
91 151 146
91 151 146
91 151 146
91 151 146
91 151 146
91 151 146
91 151 146
91 151 146
91 151 146
91 151 146
91 151 146
91 151 146
91 151 146
91 151 146
91 152 147
95 158 153
101 168 163
109 181 175
118 196 190
128 213 206
139 232 224
151 252 244
164 274 265
178 297 287
193 321 310
208 346 335
223 372 360
240 400 386
257 428 414
274 457 441
292 486 470
310 516 499
328 547 529
347 578 559
366 609 589
384 640 619
403 672 649
422 702 679
440 733 709
458 764 738
476 794 767
494 823 796
511 851 823
527 878 849
543 905 874
558 929 898
572 953 921
586 976 944
599 998 965
612 1020 986
625 1041 1006
637 1062 1026
650 1082 1046
650 1083 1047
91 151 146
91 151 146
91 151 146
91 151 146
91 151 146
91 151 146
91 151 146
91 151 146
91 151 146
91 151 146
91 151 146
91 151 146
91 151 146
91 151 146
91 151 146
91 151 146
91 151 146
91 151 146
91 151 146
91 151 146
91 151 146
91 151 146
91 151 146
91 151 146
91 152 147
95 158 153
101 168 163
109 181 175
118 196 190
128 213 206
139 232 224
151 252 244
164 274 265
178 297 287
193 321 310
208 346 335
223 372 360
240 400 386
257 428 414
274 457 441
292 486 470
310 516 499
328 547 529
347 578 559
366 609 589
384 640 619
403 672 649
422 702 679
440 733 709
458 764 738
476 794 767
494 823 796
511 851 823
527 878 849
543 905 874
558 929 898
572 953 921
586 976 944
599 998 965
612 1020 986
625 1041 1006
637 1062 1026
650 1082 1046
650 1083 1047
91 151 146
91 151 146
91 151 146
91 151 146
91 151 146
91 151 146
91 151 146
91 151 146
91 151 146
91 151 146
91 151 146
91 151 146
91 151 146
91 151 146
91 151 146
91 151 146
91 151 146
91 151 146
91 151 146
91 151 146
91 151 146
91 151 146
91 151 146
91 151 146
91 152 147
95 158 153
101 168 163
109 181 175
118 196 190
128 213 206
139 232 224
151 252 244
164 274 265
178 297 287
193 321 310
208 346 335
223 372 360
240 400 386
257 428 414
274 457 441
292 486 470
310 516 499
328 547 529
347 578 559
366 609 589
384 640 619
403 672 649
422 702 679
440 733 709
458 764 738
476 794 767
494 823 796
511 851 823
527 878 849
543 905 874
558 929 898
572 953 921
586 976 944
599 998 965
612 1020 986
625 1041 1006
637 1062 1026
650 1082 1046
650 1083 1047
91 151 146
91 151 146
91 151 146
91 151 146
91 151 146
91 151 146
91 151 146
91 151 146
91 151 146
91 151 146
91 151 146
91 151 146
91 151 146
91 151 146
91 151 146
91 151 146
91 151 146
91 151 146
91 151 146
91 151 146
91 151 146
91 151 146
91 151 146
91 151 146
91 152 147
95 158 153
101 168 163
109 181 175
118 196 190
128 213 206
139 232 224
151 252 244
164 274 265
178 297 287
193 321 310
208 346 335
223 372 360
240 400 386
257 428 414
274 457 441
292 486 470
310 516 499
328 547 529
347 578 559
366 609 589
384 640 619
403 672 649
422 702 679
440 733 709
458 764 738
476 794 767
494 823 796
511 851 823
527 878 849
543 905 874
558 929 898
572 953 921
586 976 944
599 998 965
612 1020 986
625 1041 1006
637 1062 1026
650 1082 1046
650 1083 1047
91 151 146
91 151 146
91 151 146
91 151 146
91 151 146
91 151 146
91 151 146
91 151 146
91 151 146
91 151 146
91 151 146
91 151 146
91 151 146
91 151 146
91 151 146
91 151 146
91 151 146
91 151 146
91 151 146
91 151 146
91 151 146
91 151 146
91 151 146
91 151 146
91 152 147
95 158 153
101 168 163
109 181 175
118 196 190
128 213 206
139 232 224
151 252 244
164 274 265
178 297 287
193 321 310
208 346 335
223 372 360
240 400 386
257 428 414
274 457 441
292 486 470
310 516 499
328 547 529
347 578 559
366 609 589
384 640 619
403 672 649
422 702 679
440 733 709
458 764 738
476 794 767
494 823 796
511 851 823
527 878 849
543 905 874
558 929 898
572 953 921
586 976 944
599 998 965
612 1020 986
625 1041 1006
637 1062 1026
650 1082 1046
650 1083 1047
91 151 146
91 151 146
91 151 146
91 151 146
91 151 146
91 151 146
91 151 146
91 151 146
91 151 146
91 151 146
91 151 146
91 151 146
91 151 146
91 151 146
91 151 146
91 151 146
91 151 146
91 151 146
91 151 146
91 151 146
91 151 146
91 151 146
91 151 146
91 151 146
91 152 147
95 158 153
101 168 163
109 181 175
118 196 190
128 213 206
139 232 224
151 252 244
164 274 265
178 297 287
193 321 310
208 346 335
223 372 360
240 400 386
257 428 414
274 457 441
292 486 470
310 516 499
328 547 529
347 578 559
366 609 589
384 640 619
403 672 649
422 702 679
440 733 709
458 764 738
476 794 767
494 823 796
511 851 823
527 878 849
543 905 874
558 929 898
572 953 921
586 976 944
599 998 965
612 1020 986
625 1041 1006
637 1062 1026
650 1082 1046
650 1083 1047
91 151 146
91 151 146
91 151 146
91 151 146
91 151 146
91 151 146
91 151 146
91 151 146
91 151 146
91 151 146
91 151 146
91 151 146
91 151 146
91 151 146
91 151 146
91 151 146
91 151 146
91 151 146
91 151 146
91 151 146
91 151 146
91 151 146
91 151 146
91 151 146
91 152 147
95 158 153
101 168 163
109 181 175
118 196 190
128 213 206
139 232 224
151 252 244
164 274 265
178 297 287
193 321 310
208 346 335
223 372 360
240 400 386
257 428 414
274 457 441
292 486 470
310 516 499
328 547 529
347 578 559
366 609 589
384 640 619
403 672 649
422 702 679
440 733 709
458 764 738
476 794 767
494 823 796
511 851 823
527 878 849
543 905 874
558 929 898
572 953 921
586 976 944
599 998 965
612 1020 986
625 1041 1006
637 1062 1026
650 1082 1046
650 1083 1047
126 210 203
126 210 203
126 210 203
126 210 203
126 210 203
126 210 203
126 210 203
126 210 203
126 210 203
126 210 203
126 210 203
126 210 203
126 210 203
126 210 203
126 210 203
126 210 203
126 210 203
126 210 203
126 210 203
126 210 203
126 210 203
126 210 203
126 210 203
126 210 203
127 211 204
131 218 210
137 228 220
144 241 233
153 256 247
164 273 263
175 291 281
187 311 301
200 333 322
214 356 344
228 380 368
243 406 392
259 432 418
275 459 444
292 487 471
310 516 499
327 546 527
345 576 556
364 606 586
382 637 616
401 668 646
420 700 676
439 731 707
457 762 737
476 793 766
494 823 796
512 853 825
529 882 853
546 911 880
563 938 906
578 964 932
593 989 956
607 1013 979
621 1035 1001
635 1058 1022
647 1079 1043
660 1100 1064
673 1121 1084
685 1142 1104
685 1142 1104
172 287 277
172 287 277
172 287 277
172 287 277
172 287 277
172 287 277
172 287 277
172 287 277
172 287 277
172 287 277
172 287 277
172 287 277
172 287 277
172 287 277
172 287 277
172 287 277
172 287 277
172 287 277
172 287 277
172 287 277
172 287 277
172 287 277
172 287 277
172 287 277
172 287 278
176 294 284
182 304 294
190 317 306
199 332 321
209 349 337
221 368 355
233 388 375
246 409 396
259 432 418
274 456 441
289 482 466
305 508 491
321 535 517
338 563 545
355 592 572
373 622 601
391 652 630
410 682 660
428 713 690
447 745 720
466 776 750
484 807 780
503 838 810
521 869 840
540 899 869
558 929 898
575 958 927
592 987 954
608 1014 980
624 1040 1006
639 1065 1029
653 1089 1052
667 1112 1075
680 1134 1096
693 1155 1117
706 1176 1137
718 1197 1157
731 1218 1177
731 1218 1178
212 353 341
212 353 341
212 353 341
212 353 341
212 353 341
212 353 341
212 353 341
212 353 341
212 353 341
212 353 341
212 353 341
212 353 341
212 353 341
212 353 341
212 353 341
212 353 341
212 353 341
212 353 341
212 353 341
212 353 341
212 353 341
212 353 341
212 353 341
212 353 341
212 354 342
216 360 348
222 370 358
230 383 371
239 398 385
249 415 401
260 434 420
273 454 439
286 476 460
299 499 482
314 523 505
329 548 530
345 574 555
361 602 582
378 630 609
395 659 637
413 688 665
431 718 694
449 749 724
468 780 754
487 811 784
505 842 814
524 874 844
543 905 874
561 935 904
580 966 934
597 996 963
615 1025 991
632 1053 1018
648 1080 1044
664 1106 1070
679 1131 1094
693 1155 1117
707 1178 1139
720 1200 1160
733 1222 1181
746 1243 1201
758 1264 1221
771 1285 1242
771 1285 1242
249 415 401
249 415 401
249 415 401
249 415 401
249 415 401
249 415 401
249 415 401
249 415 401
249 415 401
249 415 401
249 415 401
249 415 401
249 415 401
249 415 401
249 415 401
249 415 401
249 415 401
249 415 401
249 415 401
249 415 401
249 415 401
249 415 401
249 415 401
249 415 401
250 416 402
254 423 408
260 433 418
267 445 431
276 460 445
286 477 461
298 496 480
310 516 499
323 538 520
337 561 542
351 585 565
366 610 590
382 637 615
398 664 642
415 692 669
433 721 697
450 750 725
468 780 754
487 811 784
505 842 814
524 873 844
543 904 874
561 936 905
580 967 934
598 997 964
617 1028 994
635 1058 1023
652 1087 1051
669 1115 1078
686 1142 1104
701 1169 1130
716 1193 1154
730 1217 1177
744 1240 1199
757 1262 1220
770 1284 1241
783 1305 1262
796 1326 1282
808 1347 1302
808 1347 1302
284 474 458
284 474 458
284 474 458
284 474 458
284 474 458
284 474 458
284 474 458
284 474 458
284 474 458
284 474 458
284 474 458
284 474 458
284 474 458
284 474 458
284 474 458
284 474 458
284 474 458
284 474 458
284 474 458
284 474 458
284 474 458
284 474 458
284 474 458
284 474 458
285 475 459
289 481 465
295 491 475
302 504 487
311 519 502
322 536 518
333 554 536
345 575 556
358 596 577
372 620 599
386 644 622
402 669 647
417 695 672
434 723 699
450 751 726
468 779 753
486 809 782
504 839 811
522 870 841
540 901 871
559 932 901
578 963 931
597 994 961
615 1025 991
634 1056 1021
652 1087 1050
670 1117 1079
687 1146 1108
704 1174 1135
721 1201 1161
736 1227 1186
751 1252 1210
766 1276 1233
779 1299 1256
793 1321 1277
806 1342 1298
818 1364 1318
831 1385 1338
843 1405 1359
843 1406 1359
318 530 512
318 530 512
318 530 512
318 530 512
