Volume2_Chapter6_FProject/Looks/Artistic Effect Blue.3DL
#Created by: Adobe Photoshop Export Color Lookup Plugin
#Copyright: (C) Copyright 2024 Jennifer Harder
#Description: Artistic Effect Blue
0 146 292 438 585 731 877 1023
91 151 146
91 151 146
91 151 146
109 181 175
223 372 360
384 640 619
543 905 874
650 1083 1047
126 210 203
126 210 203
126 210 203
144 241 233
259 432 418
420 700 676
578 964 932
685 1142 1104
442 737 712
442 737 712
442 737 712
460 767 742
575 958 926
736 1226 1185
894 1490 1441
1001 1669 1613
678 1130 1092
678 1130 1092
678 1130 1092
696 1160 1121
811 1351 1306
972 1619 1565
1130 1883 1821
1237 2062 1993
866 1444 1395
866 1444 1395
866 1444 1395
884 1474 1425
999 1665 1609
1160 1933 1869
1318 2197 2124
1425 2375 2296
1010 1683 1627
1010 1683 1627
1010 1683 1627
1028 1714 1657
1143 1905 1842
1304 2173 2101
1462 2437 2356
1592 2593 2510
1118 1864 1802
1118 1864 1802
1118 1864 1802
1137 1894 1831
1251 2086 2016
1412 2353 2275
1594 2594 2511
1772 2701 2624
1209 2015 1948
1209 2015 1948
1209 2015 1948
1227 2045 1977
1342 2236 2162
1503 2504 2421
1745 2685 2606
1923 2792 2719
247 411 397
247 411 397
247 411 397
283 472 456
458 763 737
618 1031 996
777 1295 1252
884 1473 1424
265 441 426
265 441 426
265 441 426
301 502 485
476 792 766
636 1061 1025
795 1325 1280
902 1503 1453
520 867 838
520 867 838
520 867 838
556 927 897
731 1219 1178
892 1487 1437
1050 1751 1692
1158 1929 1865
756 1260 1218
756 1260 1218
756 1260 1218
792 1320 1276
967 1611 1558
1128 1879 1817
1286 2144 2072
1393 2322 2245
944 1573 1521
944 1573 1521
944 1573 1521
981 1634 1580
1155 1925 1861
1316 2193 2120
1474 2457 2376
1612 2605 2523
1088 1814 1753
1088 1814 1753
1088 1814 1753
1125 1874 1812
1299 2165 2093
1460 2433 2352
1674 2642 2562
1852 2749 2675
1197 1994 1928
1197 1994 1928
1197 1994 1928
1233 2055 1986
1408 2346 2268
1590 2592 2509
1854 2750 2676
2033 2858 2789
1287 2145 2073
1287 2145 2073
1287 2145 2073
1323 2205 2132
1498 2497 2414
1741 2682 2604
2005 2841 2771
2183 2948 2885
523 872 843
523 872 843
523 872 843
559 932 901
789 1315 1271
1033 1721 1664
1191 1986 1919
1298 2164 2092
541 901 871
541 901 871
541 901 871
577 962 930
807 1345 1300
1051 1751 1693
1209 2015 1948
1316 2194 2121
699 1165 1126
699 1165 1126
699 1165 1126
735 1225 1184
965 1608 1554
1209 2015 1948
1367 2279 2203
1474 2457 2375
894 1490 1440
894 1490 1440
894 1490 1440
930 1551 1499
1160 1933 1869
1404 2340 2262
1581 2586 2503
1759 2693 2616
1082 1804 1744
1082 1804 1744
1082 1804 1744
1119 1864 1802
1348 2247 2172
1630 2616 2534
1894 2775 2701
2073 2882 2814
1226 2044 1976
1226 2044 1976
1226 2044 1976
1263 2104 2034
1492 2487 2404
1870 2760 2686
2135 2919 2853
2313 3026 2966
1335 2224 2150
1335 2224 2150
1335 2224 2150
1371 2285 2209
1644 2624 2543
2051 2868 2800
2315 3027 2968
2493 3134 3081
1425 2375 2296
1425 2375 2296
1425 2375 2296
1461 2436 2355
1795 2715 2638
2202 2959 2896
2466 3117 3063
2644 3225 3176
735 1225 1184
735 1225 1184
735 1225 1184
771 1286 1243
1001 1668 1612
1322 2204 2130
1509 2516 2432
1670 2640 2559
753 1255 1213
753 1255 1213
753 1255 1213
789 1315 1271
1019 1698 1641
1340 2233 2159
1527 2545 2461
1700 2658 2578
911 1518 1468
911 1518 1468
911 1518 1468
947 1579 1526
1177 1961 1896
1498 2497 2414
1785 2709 2632
1964 2816 2745
1029 1714 1657
1029 1714 1657
1029 1714 1657
1065 1775 1716
1295 2158 2086
1670 2640 2559
1982 2827 2757
2160 2934 2870
1188 1981 1915
1188 1981 1915
1188 1981 1915
1225 2041 1973
1454 2424 2343
1936 2800 2728
2248 2987 2925
2426 3094 3038
1332 2221 2147
1332 2221 2147
1332 2221 2147
1369 2281 2205
1640 2622 2540
2176 2944 2880
2488 3131 3077
2666 3238 3190
1441 2401 2321
1441 2401 2321
1441 2401 2321
1477 2462 2380
1821 2730 2655
2357 3052 2994
2668 3239 3192
2847 3346 3305
1531 2552 2467
1531 2552 2467
1531 2552 2467
1589 2591 2508
1971 2821 2750
2507 3142 3089
2819 3330 3287
2998 3437 3400
902 1504 1454
902 1504 1454
902 1504 1454
939 1564 1512
1168 1947 1882
1490 2482 2400
1910 2784 2711
2088 2891 2824
920 1533 1482
920 1533 1482
920 1533 1482
956 1594 1541
1186 1976 1911
1507 2512 2429
1940 2802 2730
2118 2909 2843
1078 1797 1737
1078 1797 1737
1078 1797 1737
1114 1857 1795
1344 2240 2165
1752 2689 2611
2203 2960 2897
2382 3067 3010
1196 1993 1927
1196 1993 1927
1196 1993 1927
1232 2053 1985
1462 2436 2355
1949 2807 2736
2400 3078 3021
2578 3185 3134
1290 2150 2078
1290 2150 2078
1290 2150 2078
1326 2210 2137
1569 2580 2496
2106 2901 2835
2557 3172 3121
2735 3279 3234
1416 2360 2281
1416 2360 2281
1416 2360 2281
1452 2421 2340
1779 2706 2629
2316 3027 2968
2767 3298 3254
2945 3405 3367
1524 2540 2456
1524 2540 2456
1524 2540 2456
1577 2584 2501
1960 2814 2743
2496 3136 3082
2948 3407 3368
3126 3514 3481
1667 2638 2558
1667 2638 2558
1667 2638 2558
1728 2675 2596
2111 2904 2838
2647 3226 3178
3098 3497 3464
3276 3604 3577
1029 1715 1658
1029 1715 1658
1029 1715 1658
1065 1776 1717
1295 2158 2086
1670 2640 2559
2198 2957 2894
2405 3081 3025
1047 1745 1687
1047 1745 1687
1047 1745 1687
1083 1805 1745
1313 2188 2115
1700 2658 2578
2228 2975 2913
2435 3099 3044
1205 2008 1941
1205 2008 1941
1205 2008 1941
1241 2069 2000
1471 2451 2370
1963 2816 2745
2492 3133 3080
2699 3257 3211
1323 2205 2131
1323 2205 2131
1323 2205 2131
1359 2265 2190
1624 2612 2530
2160 2934 2870
2688 3251 3204
2895 3375 3335
1417 2361 2283
1417 2361 2283
1417 2361 2283
1453 2422 2341
1781 2707 2630
2317 3028 2969
2846 3345 3304
3052 3469 3435
1489 2482 2399
1489 2482 2399
1489 2482 2399
1525 2542 2457
1901 2779 2706
2437 3100 3045
2966 3417 3380
3173 3542 3511
1622 2611 2529
1622 2611 2529
1622 2611 2529
1683 2648 2567
2066 2877 2810
2602 3199 3149
3130 3516 3484
3337 3640 3615
1773 2702 2624
1773 2702 2624
1773 2702 2624
1834 2738 2663
2216 2968 2905
2752 3289 3245
3281 3607 3580
3488 3731 3711
1126 1877 1815
1126 1877 1815
1126 1877 1815
1163 1938 1873
1392 2320 2243
1832 2737 2662
2361 3054 2997
2648 3227 3179
1144 1907 1843
1144 1907 1843
1144 1907 1843
1180 1967 1902
1410 2350 2272
1862 2755 2681
2390 3072 3015
2678 3245 3198
1302 2170 2098
1302 2170 2098
1302 2170 2098
1338 2231 2156
1590 2592 2508
2125 2913 2848
2654 3230 3182
2942 3403 3365
1420 2366 2288
1420 2366 2288
1420 2366 2288
1456 2427 2346
1786 2710 2633
2322 3031 2972
2850 3348 3307
3138 3521 3489
1514 2523 2439
1514 2523 2439
1514 2523 2439
1560 2574 2490
1943 2804 2732
2479 3125 3072
3008 3443 3406
3295 3615 3589
1620 2610 2527
1620 2610 2527
1620 2610 2527
1680 2646 2566
2063 2876 2808
2599 3197 3147
3128 3515 3482
3416 3687 3665
1710 2664 2584
1710 2664 2584
1710 2664 2584
1771 2700 2623
2153 2930 2865
2689 3252 3205
3218 3569 3540
3506 3742 3722
1854 2750 2676
1854 2750 2676
1854 2750 2676
1915 2787 2714
2297 3016 2957
2833 3338 3296
3362 3655 3631
3650 3828 3813
1209 2015 1948
1209 2015 1948
1209 2015 1948
1245 2075 2006
1475 2458 2376
1970 2820 2749
2498 3137 3084
2855 3351 3310
1227 2044 1976
1227 2044 1976
1227 2044 1976
1263 2105 2035
1493 2488 2405
2000 2838 2768
2528 3155 3102
2885 3369 3328
1385 2308 2231
1385 2308 2231
1385 2308 2231
1421 2368 2289
1727 2674 2595
2263 2996 2935
2791 3313 3269
3148 3527 3495
1503 2504 2421
1503 2504 2421
1503 2504 2421
1541 2563 2478
1924 2792 2720
2460 3114 3059
2988 3431 3394
3345 3645 3620
1637 2620 2539
1637 2620 2539
1637 2620 2539
1698 2657 2577
2081 2886 2819
2617 3208 3159
3145 3525 3494
3502 3739 3719
1757 2692 2615
1757 2692 2615
1757 2692 2615
1818 2729 2653
2201 2958 2895
2737 3280 3235
3265 3597 3570
3622 3811 3796
1848 2747 2672
1848 2747 2672
1848 2747 2672
1908 2783 2710
2291 3013 2952
2827 3334 3292
3356 3651 3627
3713 3866 3853
1923 2792 2719
1923 2792 2719
1923 2792 2719
1984 2828 2758
2366 3058 3000
2902 3379 3340
3431 3697 3674
3788 3911 3901
