Volume2_Chapter6_FProject/Looks/Artistic Effect Blue.3DL
#Created by: Adobe Photoshop Export Color Lookup Plugin
#Copyright: (C) Copyright 2024 Jennifer Harder
#Description: Artistic Effect Blue
0 341 682 1023
91 151 146
91 151 146
328 547 529
650 1083 1047
526 877 848
526 877 848
764 1274 1231
1086 1809 1749
967 1611 1558
967 1611 1558
1204 2008 1941
1526 2543 2459
1209 2015 1948
1209 2015 1948
1447 2411 2330
1923 2792 2719
599 999 966
599 999 966
1075 1791 1731
1413 2355 2277
818 1362 1317
818 1362 1317
1293 2155 2083
1695 2655 2575
1221 2036 1968
1221 2036 1968
1804 2721 2644
2368 3059 3002
1463 2439 2358
1463 2439 2358
2207 2963 2900
2772 3301 3257
991 1652 1597
991 1652 1597
1466 2444 2362
2310 3024 2965
1209 2015 1948
1209 2015 1948
1784 2708 2631
2674 3242 3195
1429 2382 2303
1429 2382 2303
2150 2928 2864
3041 3463 3428
1741 2683 2604
1741 2683 2604
2534 3158 3106
3425 3693 3670
1209 2015 1948
1209 2015 1948
1783 2708 2631
2855 3351 3310
1427 2378 2299
1427 2378 2299
2147 2926 2861
3219 3569 3540
1721 2671 2592
1721 2671 2592
2514 3146 3094
3586 3790 3773
1923 2792 2719
1923 2792 2719
2715 3267 3221
3788 3911 3901
